X:1
T:Dindirindin
T:Dindirindin
T:Anonymus (c. 1500)
T: 
T: 
T:560
C:Anonymus
%%score [ 1 2 3 4 ]
L:1/8
Q:1/2=240
M:3/2
K:F
V:1 treble nm="S"
V:2 treble nm="A"
V:3 treble-8 nm="T"
V:4 bass nm="B"
V:1
 F4 F4 F4 | E4 E4 F4 | G4 G4 F4 | E8 F4 | G4 E4 E4 | D12 |:[M:2/2][Q:1/2=160] d4 d4 | %7
w: Din- di- rín,|din- di- rín,|din- di- rín|da- ña,|din- di- rin-|dín.|Je me|
w: ||||||En con-|
w: ||||||“Rui- se-|
[M:4/2] A4 A4 A4 A4 | G8 E4 E4 | F4 F4 E4 E4 | (F4 A4 G8) | F8 |[M:3/2][Q:1/2=240] F8 F4 | F8 F4 | %14
w: le- vé~un bel ma-|tin, Ma- ti-|na- ta- per la|pra- * *|ta;|En- con-|tré le|
w: tré le rui- se-|ñor Que can-|ta- ba so la|ra- * *|ma.|“Rui- se-|ñor, le|
w: ñor, le rui- se-|ñor, Fác temea-|ques- ta em- ba-|xa- * *|ta.|Y dí-|ga- loa|
 F8 F4 | F12 | E8 F4 | G8 G4 | G8 F4 | E8 F4 | G4 E4 E4 | D12 | F4 F4 F4 | E4 E4 F4 | G4 G4 F4 | %25
w: rui- se-|ñor|Que can-|ta- ba|so la|ra- ma.|||Din- di- rín,|din- di- rín,|din- di- rín|
w: rui- se-|ñor,|Fác temea-|ques- ta|em- ba-|xa- ta.”|Din- di- rin-|din.||||
w: mon a-|mi|Que je|ya só|ma- ri-|ta- ta.”||||||
 E8 F4 | G4 E4 E4 | D12 :| %28
w: da- ña,|din- di- rin-|dín.|
w: |||
w: |||
V:2
 D4 D4 D4 | C4 C4 D4 | E4 E4 D4 | ^C8 D4 | =B,4 ^C4 C4 | D12 |:[M:2/2] D4 D4 |[M:4/2] E4 E4 E4 E4 | %8
w: Din- di- rín,|din- di- rín,|din- di- rín|da- ña,|din- di- rin-|dín.|Je me|le- vé~un bel ma-|
w: ||||||En con-|tré le rui- se-|
w: ||||||“Rui- se-|ñor, le rui- se-|
 G8 G4 G4 | A4 A4 G4 G4 | (F6 D2 E8) | F8 |[M:3/2] D8 D4 | D8 D4 | D8 D4 | D12 | ^C8 D4 | E8 E4 | %18
w: tin, Ma- ti-|na- ta- per la|pra- * *|ta;|En- con-|tré le|rui- se-|ñor|Que can-|ta- ba|
w: ñor Que can-|ta- ba so la|ra- * *|ma.|“Rui- se-|ñor, le|rui- se-|ñor,|Fác temea-|ques- ta|
w: ñor, Fác temea-|ques- ta em- ba-|xa- * *|ta.|Y dí-|ga- loa|mon a-|mi|Que je|ya só|
 E8 D4 | ^C8 D4 | =B,4 ^C4 C4 | D12 | D4 D4 D4 | ^C4 C4 D4 | E4 E4 D4 | ^C8 D4 | =B,4 ^C4 C4 | %27
w: so la|ra- ma.|||Din- di- rín,|din- di- rín,|din- di- rín|da- ña,|din- di- rin-|
w: em- ba-|xa- ta.”|Din- di- rin-|din.||||||
w: ma- ri-|ta- ta.”||||||||
 D12 :| %28
w: dín.|
w: |
w: |
V:3
 A4 A4 A4 | A4 A4 A4 | c4 c4 A4 | A8 A4 | G4 A4 A4 | A12 |:[M:2/2] A4 A4 |[M:4/2] d4 d4 d4 d4 | %8
w: Din- di- rín,|din- di- rín,|din- di- rín|da- ña,|din- di- rin-|dín.|Je me|le- vé~un bel ma-|
w: ||||||En con-|tré le rui- se-|
w: ||||||“Rui- se-|ñor, le rui- se-|
 d8 c4 c4 | c4 c4 c4 c4 | c16 | c8 |[M:3/2] B8 B4 | B8 B4 | B8 B4 | A12 | A8 A4 | c8 c4 | c8 A4 | %19
w: tin, Ma- ti-|na- ta- per la|pra-|ta;|En- con-|tré le|rui- se-|ñor|Que can-|ta- ba|so la|
w: ñor Que can-|ta- ba so la|ra-|ma.|“Rui- se-|ñor, le|rui- se-|ñor,|Fác temea-|ques- ta|em- ba-|
w: ñor, Fác temea-|ques- ta em- ba-|xa-|ta.|Y dí-|ga- loa|mon a-|mi|Que je|ya só|ma- ri-|
 A8 A4 | G4 A4 A4 | A12 | A4 A4 A4 | A4 A4 A4 | c4 c4 A4 | A8 A4 | G4 A4 A4 | A12 :| %28
w: ra- ma.|||Din- di- rín,|din- di- rín,|din- di- rín|da- ña,|din- di- rin-|dín.|
w: xa- ta.”|Din- di- rin-|din.|||||||
w: ta- ta.”|||||||||
V:4
 D,4 D,4 D,4 | A,,4 A,,4 D,4 | C,4 C,4 D,4 | A,,8 D,4 | E,4 A,,4 A,,4 | D,12 |:[M:2/2] D,4 D,4 | %7
w: Din- di- rín,|din- di- rín,|din- di- rín|da- ña,|din- di- rin-|dín.|Je me|
w: ||||||En con-|
w: ||||||“Rui- se-|
[M:4/2] D,4 D,4 D,4 D,4 | G,8 C,4 C,4 | F,4 F,4 C,4 C,4 | (F,8 C,8) | F,8 |[M:3/2] B,,8 B,,4 | %13
w: le- vé~un bel ma-|tin, Ma- ti-|na- ta- per la|pra- *|ta;|En- con-|
w: tré le rui- se-|ñor Que can-|ta- ba so la|ra- *|ma.|“Rui- se-|
w: ñor, le rui- se-|ñor, Fác temea-|ques- ta em- ba-|xa- *|ta.|Y dí-|
 B,,8 B,,4 | B,,8 B,,4 | D,12 | A,,8 D,4 | C,8 C,4 | C,8 D,4 | A,,8 D,4 | E,4 A,,4 A,,4 | D,12 | %22
w: tré le|rui- se-|ñor|Que can-|ta- ba|so la|ra- ma.|||
w: ñor, le|rui- se-|ñor,|Fác temea-|ques- ta|em- ba-|xa- ta.”|Din- di- rin-|din.|
w: ga- loa|mon a-|mi|Que je|ya só|ma- ri-|ta- ta.”|||
 D,4 D,4 D,4 | A,,4 A,,4 D,4 | C,4 C,4 D,4 | A,,8 D,4 | E,4 A,,4 A,,4 | D,12 :| %28
w: Din- di- rín,|din- di- rín,|din- di- rín|da- ña,|din- di- rin-|dín.|
w: ||||||
w: ||||||

